X:7177
T:The Oyster Tune
O:england
S:from a friend who heard it on the radio
M:6/8
L:1/8
K:D
fge f2 d|dce d2 c|B>cd dce|dfd e>fg|f>ga b2 b|b>ag fdA|
B>cd dce|dec d3:|dec B2 A|Bdc dfe|dec B2 A|Bd z dc z|
dec B2 A|Bdc dfe|dec B2 A|Bdc d3||f>ga f>ga|gfe d>ef|
e>fg f>ga|g2 b b2 g|f>ga b3|b>bb a>aa|g>gg g3|fdA Bdc|
d3-d3|c3-c3||fge f2 d|dce d2 c|B>cd dce|dfd e>fg|
f>ga b2 b|b>ag fdA|B>cd dce|dec d3|]


